X: 1
T: Land Of Sunshine, The
M: 4/4
L: 1/8
R: reel
K: Cmaj
C2EC B,DGF|EccB cGEG|FAdF EGCE|FEDC (3B,A,G, B,D|
C2EC B,DGF|EccB cGEG|FAdc BGFD|1 DCB,D ~C3G,:|2 DCB,D ~C3e||
|:ge~e2 fdBd|cedB cGEG|FAdF EGce|fed^c defa|
ge~e2 fdBd|cedB cGEG|FAdc BGFD|1 DCB,D ~C3e:|2 DCB,D ~C3G,||
